X: 1
T:Longing for mother
C:anon.
O:Hungary
Z:Transcribed by Frank Nordberg - http://www.musicaviva.com
M:2/4
L:1/8
K:Ddor
Ad c<d|cA G<A|D2D z| d>d c<c|dc e<d|A2A z|
d>d c<c|d<c ed|A2F z|A<d c<d|cA G<A|D2D z|]
